X:430
T:Donnie MacGillivray's Welcome To The 21st Century 
C:Joe Buchanan's Scottish Tome - Page 393.0
I:393 0
C:Fergie MacDonald
Z:Carl Allison
R:March
L:1/8
M:2/4
K:D
a | AB/<G/ AA/g/ | e/>d/e/<g/ a>g | e/>d/B/<A/ G/>A/B/<G/ | B/<d/g/>f/ e/>d/B/<G/ |
AB/<G/ AA/g/ | e/>d/e/<g/ a>g | e/>d/B/>A/ G/>d/B/<d/ | eA/A/ A :|
g/>f/ | e/>d/e/<g/ AA/g/ | e/>d/e/<g/ a/>g/e/<g/ | e/>d/B/<d/ G/>G/G/>d/ | B/><d/g/>f/ e/>d/B/<G/ |
e/>d/B/<e/ AA/g/ | e/>d/e/<g/ a>g | e/>d/B/>A/ G/>d/B/<d/ | eA/A/ A :|
a | A/>A/G/>A/ AA/g/ | e/>d/e/<g/ a/>g/e/<d/ | BA/<B/ G/>G/G/B/ | B/<d/g/>f/ e/>d/B/<G/ |
A/>A/G/>B/ AA/g/ | e/>d/e/<g/ a>g | e/>d/B/>A/ G/>d/B/<d/ | eA/A/ A :|
a | A/>A/a/>A/ g/>A/f/>A/ | e/>A/f/>A/ g/>e/d/>B/ | ((3G/G/G/)d/G/ B/>G/d/>G/ | B/<d/g/>f/ e/>d/B/<G/ |
A/>A/a/>A/ g/>A/f/>A/  | f/>d/e/<g/ a>g | e/>d/B/>A/ G/>d/B/<d/ | eA/A/ Aa |
A/>A/a/>A/ g/>A/f/>A/ | e/>A/f/>A/ g/>e/d/>B/ | ((3G/G/G/)d/G/ B/>G/d/>G/ | B/<d/g/>f/ e/>d/B/<G/ |
AB/<G/ AA/g/ | e/>d/e/<g/ a>g | e/>d/B/>A/ G/>d/B/<d/ | eA/A/ A |]

